X:76
T:Scatter the Mud
M:6/8
L:1/8
K:ADor
eAA BAA|eAA ABd|eAA BAB|dBG GBd|eAA BAA|eAA AGE|GAB dge|dBA A3:|:
aba g2e|dBG GBd|aba g2e|dBd e3|aba g2e|dBG AGE|GAB dge|dBA A3:|
